public/img/removal/remove-question.svg

<svg fill="none" height="16" viewBox="0 0 16 16" width="16" xmlns="http://www.w3.org/2000/svg"><path d="m7.625.5c-.98491 0-1.96018.193993-2.87013.5709-.90994.37691-1.73673.92936-2.43317 1.6258s-1.24889 1.52323-1.625796 2.43317c-.376911.90995-.570904 1.88522-.570904 2.87013s.193993 1.96018.570904 2.8701c.376906.91.929356 1.7368 1.625796 2.4332s1.52323 1.2489 2.43317 1.6258c.90995.3769 1.88522.5709 2.87013.5709 1.98912 0 3.8968-.7902 5.3033-2.1967s2.1967-3.31418 2.1967-5.3033-.7902-3.89678-2.1967-5.3033-3.31418-2.1967-5.3033-2.1967zm.625 11.25-.25.25h-.75l-.25-.25v-.75l.25-.25h.75l.25.25zm0-3.329v.663c0 .16576-.06585.32473-.18306.44194s-.27618.18306-.44194.18306-.32473-.06585-.44194-.18306-.18306-.27618-.18306-.44194v-.767c0-.527.37-.987.879-1.092.577-.12.996-.635.996-1.225-.0022-.29444-.1081-.57868-.2991-.80277-.19099-.2241-.45486-.3737-.74523-.42254-.29036-.04883-.58865.00624-.84244.15553-.25379.1493-.44684.38326-.54523.66078-.06139.14685-.17642.2648-.32168.32986-.14526.06507-.30985.07235-.46029.02038-.15044-.05198-.27544-.1593-.34957-.30016-.07412-.14085-.09181-.30465-.04946-.45808.14134-.40847.38617-.77332.71059-1.05893s.71735-.48224 1.14044-.57068c.42308-.08844.86187-.06568 1.27354.06607.41166.13174.78214.36797 1.07526.68562.29313.31765.49889.70587.59717 1.12678.0983.4209.0859.8601-.0362 1.27473-.1221.41464-.3496.79054-.6603 1.09101-.31071.30048-.69401.51527-1.1125.6234z" fill="#979797"/></svg>

<svg width="16" height="16" viewBox="0 0 16 16" fill="none" xmlns="http://www.w3.org/2000/svg">
<title>Question mark inside a circle</title>
<path d="M7.625 0.5C6.64009 0.5 5.66482 0.693993 4.75487 1.0709C3.84493 1.44781 3.01814 2.00026 2.3217 2.6967C1.62526 3.39314 1.07281 4.21993 0.695904 5.12987C0.318993 6.03982 0.125 7.01509 0.125 8C0.125 8.98491 0.318993 9.96018 0.695904 10.8701C1.07281 11.7801 1.62526 12.6069 2.3217 13.3033C3.01814 13.9997 3.84493 14.5522 4.75487 14.9291C5.66482 15.306 6.64009 15.5 7.625 15.5C9.61412 15.5 11.5218 14.7098 12.9283 13.3033C14.3348 11.8968 15.125 9.98912 15.125 8C15.125 6.01088 14.3348 4.10322 12.9283 2.6967C11.5218 1.29018 9.61412 0.5 7.625 0.5ZM8.25 11.75L8 12H7.25L7 11.75V11L7.25 10.75H8L8.25 11V11.75ZM8.25 8.421V9.084C8.25 9.24976 8.18415 9.40873 8.06694 9.52594C7.94973 9.64315 7.79076 9.709 7.625 9.709C7.45924 9.709 7.30027 9.64315 7.18306 9.52594C7.06585 9.40873 7 9.24976 7 9.084V8.317C7 7.79 7.37 7.33 7.879 7.225C8.456 7.105 8.875 6.59 8.875 6C8.8728 5.70556 8.7669 5.42132 8.5759 5.19723C8.38491 4.97313 8.12104 4.82353 7.83067 4.77469C7.54031 4.72586 7.24202 4.78093 6.98823 4.93022C6.73444 5.07952 6.54139 5.31348 6.443 5.591C6.38161 5.73785 6.26658 5.8558 6.12132 5.92086C5.97606 5.98593 5.81147 5.99321 5.66103 5.94124C5.51059 5.88926 5.38559 5.78194 5.31146 5.64108C5.23734 5.50023 5.21965 5.33643 5.262 5.183C5.40334 4.77453 5.64817 4.40968 5.97259 4.12407C6.29701 3.83846 6.68994 3.64183 7.11303 3.55339C7.53611 3.46495 7.9749 3.48771 8.38657 3.61946C8.79823 3.7512 9.16871 3.98743 9.46183 4.30508C9.75496 4.62273 9.96072 5.01095 10.059 5.43186C10.1573 5.85276 10.1449 6.29196 10.0228 6.70659C9.9007 7.12123 9.6732 7.49713 9.3625 7.7976C9.05179 8.09808 8.66849 8.31287 8.25 8.421Z" fill="#979797"/>
</svg>
